icons/2_Variations/Filen bg.var.svg

<svg width="1024" height="1024" fill="none" xmlns="http://www.w3.org/2000/svg"><g clip-path="url(#a)"><path d="M512 1024c282.77 0 512-229.23 512-512S794.77 0 512 0 0 229.23 0 512s229.23 512 512 512Z" fill="#54688C"/><path d="M512 244.5c-147.74 0-267.5 119.76-267.5 267.5S364.26 779.5 512 779.5 779.5 659.74 779.5 512 659.74 244.5 512 244.5ZM271.91 512a238.551 238.551 0 0 1 18.86-93.44l.27-.63v188.14l-.27-.63A238.551 238.551 0 0 1 271.91 512Zm299.76 232.63V555.82a31.862 31.862 0 0 0 7.932-54.045 31.865 31.865 0 0 0-20.197-7.22 31.865 31.865 0 0 0-31.24 25.606 31.86 31.86 0 0 0 18.975 35.659v193.72a242.788 242.788 0 0 1-35.14 2.55 238.551 238.551 0 0 1-104.71-23.98V583.5h51.6a26.393 26.393 0 0 0 29.61 13.406 26.392 26.392 0 0 0 20.16-25.495 26.384 26.384 0 0 0-19.871-25.721 26.385 26.385 0 0 0-29.759 13.07h-76.48v155.5a242.539 242.539 0 0 1-66.77-63.85V373.59a239.829 239.829 0 0 1 14.85-18.91h188.92a24.602 24.602 0 0 0 40.801 2.457 24.594 24.594 0 0 0 5.022-14.975 24.605 24.605 0 0 0-18.27-23.693 24.601 24.601 0 0 0-27.633 11.471h-164a240.406 240.406 0 0 1 250-39.18 239.062 239.062 0 0 1 17.29 8.15v116.75H382.55v66.77a27.207 27.207 0 0 0-14.234 30.528 27.21 27.21 0 1 0 38.974-30.408v-42.16h240.22V313.74a241.365 241.365 0 0 1 85.76 104.81A238.561 238.561 0 0 1 752.09 512v2H622.73v24.74h.1V725a242.236 242.236 0 0 1-17.39 8.2 238.393 238.393 0 0 1-33.77 11.43Zm110.09-62.86a241.197 241.197 0 0 1-34.41 28.56V538.76h103.27a239.22 239.22 0 0 1-68.85 143l-.01.01Z" fill="#fff"/></g><defs><clipPath id="a"><path fill="#fff" d="M0 0h1024v1024H0z"/></clipPath></defs></svg>

<svg width="1024" height="1024" viewBox="0 0 1024 1024" fill="none" xmlns="http://www.w3.org/2000/svg">
<g clip-path="url(#clip0_3_83)">
<path d="M512 1024C794.77 1024 1024 794.77 1024 512C1024 229.23 794.77 0 512 0C229.23 0 0 229.23 0 512C0 794.77 229.23 1024 512 1024Z" fill="#54688C"/>
<path d="M512 244.5C364.26 244.5 244.5 364.26 244.5 512C244.5 659.74 364.26 779.5 512 779.5C659.74 779.5 779.5 659.74 779.5 512C779.5 364.26 659.74 244.5 512 244.5ZM271.91 512C271.846 479.902 278.261 448.121 290.77 418.56L291.04 417.93V606.07L290.77 605.44C278.261 575.879 271.846 544.098 271.91 512ZM571.67 744.63V555.82C578.467 552.985 584.071 547.883 587.531 541.382C590.99 534.881 592.091 527.382 590.645 520.161C589.2 512.94 585.297 506.443 579.602 501.775C573.906 497.107 566.769 494.555 559.405 494.555C552.041 494.555 544.904 497.107 539.208 501.775C533.513 506.443 529.61 512.94 528.165 520.161C526.719 527.382 527.82 534.881 531.279 541.382C534.739 547.883 540.343 552.985 547.14 555.82V749.54C535.504 751.24 523.76 752.092 512 752.09C479.902 752.154 448.121 745.739 418.56 733.23C414.753 731.617 410.997 729.91 407.29 728.11V583.5H458.89C461.621 588.718 466.02 592.873 471.386 595.303C476.752 597.732 482.776 598.297 488.5 596.906C494.223 595.516 499.317 592.251 502.971 587.631C506.624 583.011 508.627 577.301 508.66 571.411C508.694 565.521 506.756 559.789 503.155 555.128C499.554 550.467 494.497 547.145 488.789 545.69C483.082 544.235 477.052 544.731 471.659 547.1C466.266 549.468 461.82 553.573 459.03 558.76H382.55V714.26C356.408 697.451 333.74 675.775 315.78 650.41V373.59C320.411 367.042 325.367 360.731 330.63 354.68H519.55C522.285 359.346 526.481 362.981 531.489 365.022C536.498 367.063 542.039 367.397 547.256 365.972C552.474 364.546 557.076 361.442 560.351 357.137C563.626 352.833 565.391 347.57 565.373 342.162C565.356 336.753 563.557 331.502 560.254 327.219C556.951 322.936 552.329 319.861 547.103 318.469C541.876 317.078 536.337 317.447 531.342 319.521C526.347 321.595 522.174 325.256 519.47 329.94H355.47C389.378 300.813 430.736 281.717 474.898 274.796C519.06 267.875 564.277 273.403 605.47 290.76C611.357 293.253 617.12 295.97 622.76 298.91V415.66H382.55V482.43C377.094 485.181 372.723 489.689 370.141 495.227C367.559 500.765 366.916 507.01 368.316 512.958C369.716 518.906 373.076 524.21 377.857 528.015C382.638 531.82 388.56 533.905 394.67 533.935C400.781 533.965 406.723 531.937 411.54 528.178C416.358 524.42 419.77 519.149 421.227 513.215C422.685 507.281 422.102 501.029 419.574 495.467C417.046 489.904 412.719 485.354 407.29 482.55V440.39H647.51V313.74C685.513 339.777 715.271 376.145 733.27 418.55C745.766 448.117 752.168 479.901 752.09 512V514H622.73V538.74H622.83V725C617.163 727.953 611.367 730.687 605.44 733.2C594.484 737.848 583.196 741.668 571.67 744.63ZM681.76 681.77C671.199 692.335 659.68 701.896 647.35 710.33V538.76H750.62C744.612 592.873 720.324 643.317 681.77 681.76L681.76 681.77Z" fill="white"/>
</g>
<defs>
<clipPath id="clip0_3_83">
<rect width="1024" height="1024" fill="white"/>
</clipPath>
</defs>
</svg>
